status/symbolic/microphone-sensitivity-muted-symbolic.svg

<svg enable-background="new" height="16.001" width="16.001" xmlns="http://www.w3.org/2000/svg">
  <path d="m8 2c-.6346444 0-1.1769544.2258712-1.6289062.6777344-.4519518.4518633-.6777344.996215-.6777344 1.6308594v3.6914062c0 .6346444.2258711 1.1790846.6777344 1.6308594.4518633.4517746.9942618.6777346 1.6289062.6777346s1.1789962-.22596 1.6308594-.6777346c.4518636-.4517748.6777346-.996215.6777346-1.6308594v-3.6914062c0-.6346444-.225694-1.1789076-.6777346-1.6308594-.4518632-.4518632-.996215-.6777344-1.6308594-.6777344zm-3.6914062 4.6152344c-.1250702 0-.2328725.0473255-.3242188.1386718-.091346.091346-.1386719.1992373-.1386719.3242188v.921875c0 1.0625204.3553686 1.9874344 1.0644531 2.773438.7090846.786002 1.5855935 1.236229 2.6289063 1.351562v.953125h-1.8457031c-.1249816 0-.2328725.045369-.3242188.136719-.091346.09135-.1386719.199237-.1386718.324218 0 .124894.0473253.232962.1386718.324219.091346.09135.1992372.136719.3242188.136719h4.6152346c.124981 0 .233049-.045371.324218-.136719.091431-.09126.136719-.199325.136719-.324219 0-.124981-.045283-.232872-.136719-.324218-.091169-.09135-.199237-.136719-.324218-.136719h-1.8457034v-.953125c1.0431358-.115333 1.9177804-.565559 2.6269534-1.351562.709173-.7860036 1.064453-1.7109176 1.064453-2.773438v-.921875c0-.1249815-.045282-.2327839-.136719-.3242188-.09117-.0913459-.199238-.1386718-.324219-.1386718-.124982 0-.232872.0473255-.324218.1386718-.09135.091346-.138672.1992373-.138672.3242188v.921875c0 .8894758-.3151 1.6509488-.947266 2.283203-.6320775.632255-1.3937272.947266-2.283203.947266s-1.6489955-.315011-2.28125-.947266c-.632166-.6320772-.9492187-1.3937272-.9492188-2.283203v-.921875c0-.1249815-.0453723-.2328725-.1367187-.3242188-.091346-.0913459-.1991487-.1386718-.3242187-.1386718z" fill="#bebebe" />
</svg>

<?xml version="1.0" encoding="UTF-8" standalone="no"?>
<!-- Created with Inkscape (http://www.inkscape.org/) -->

<svg
   xmlns:osb="http://www.openswatchbook.org/uri/2009/osb"
   xmlns:dc="http://purl.org/dc/elements/1.1/"
   xmlns:cc="http://creativecommons.org/ns#"
   xmlns:rdf="http://www.w3.org/1999/02/22-rdf-syntax-ns#"
   xmlns:svg="http://www.w3.org/2000/svg"
   xmlns="http://www.w3.org/2000/svg"
   xmlns:xlink="http://www.w3.org/1999/xlink"
   xmlns:sodipodi="http://sodipodi.sourceforge.net/DTD/sodipodi-0.dtd"
   xmlns:inkscape="http://www.inkscape.org/namespaces/inkscape"
   id="svg7384"
   style="enable-background:new"
   height="16.001"
   width="16.001"
   version="1.1"
   inkscape:version="0.91 r13725"
   sodipodi:docname="microphone-sensitivity-muted-symbolic.svg">
  <sodipodi:namedview
     pagecolor="#ffffff"
     bordercolor="#666666"
     borderopacity="1"
     objecttolerance="10"
     gridtolerance="10"
     guidetolerance="10"
     inkscape:pageopacity="0"
     inkscape:pageshadow="2"
     inkscape:window-width="1366"
     inkscape:window-height="633"
     id="namedview10"
     showgrid="false"
     inkscape:zoom="20.858347"
     inkscape:cx="1.9319659"
     inkscape:cy="11.169849"
     inkscape:window-x="0"
     inkscape:window-y="33"
     inkscape:window-maximized="1"
     inkscape:current-layer="svg7384" />
  <metadata
     id="metadata90">
    <rdf:RDF>
      <cc:Work
         rdf:about="">
        <dc:format>image/svg+xml</dc:format>
        <dc:type
           rdf:resource="http://purl.org/dc/dcmitype/StillImage" />
        <dc:title>Paper Symbolic Icon Theme</dc:title>
      </cc:Work>
    </rdf:RDF>
  </metadata>
  <title
     id="title8473">Paper Symbolic Icon Theme</title>
  <defs
     id="defs7386">
    <filter
       id="filter7554"
       style="color-interpolation-filters:sRGB">
      <feBlend
         id="feBlend7556"
         in2="BackgroundImage"
         mode="darken" />
    </filter>
    <linearGradient
       id="linearGradient4207"
       osb:paint="gradient">
      <stop
         style="stop-color:#3498db;stop-opacity:1;"
         offset="0"
         id="stop3371" />
      <stop
         style="stop-color:#3498db;stop-opacity:0;"
         offset="1"
         id="stop3373" />
    </linearGradient>
    <filter
       color-interpolation-filters="sRGB"
       id="filter7554-0">
      <feBlend
         mode="darken"
         in2="BackgroundImage"
         id="feBlend7556-75" />
    </filter>
    <linearGradient
       x1="8.9254236"
       y1="5.9997859"
       x2="8.9254236"
       y2="19"
       id="linearGradient2868"
       xlink:href="#linearGradient3678"
       gradientUnits="userSpaceOnUse"
       gradientTransform="translate(-1,-2)" />
    <linearGradient
       id="linearGradient3678">
      <stop
         id="stop3680"
         style="stop-color:#ffffff;stop-opacity:1"
         offset="0" />
      <stop
         id="stop3682"
         style="stop-color:#e6e6e6;stop-opacity:1"
         offset="1" />
    </linearGradient>
    <linearGradient
       x1="9"
       y1="3"
       x2="9"
       y2="21"
       id="linearGradient2393"
       xlink:href="#linearGradient3678"
       gradientUnits="userSpaceOnUse"
       gradientTransform="translate(-2,-1)" />
    <linearGradient
       gradientTransform="translate(-1.0001235,-5)"
       gradientUnits="userSpaceOnUse"
       xlink:href="#linearGradient3587-6-5-3"
       id="linearGradient2398"
       y2="21"
       x2="14"
       y1="3"
       x1="14" />
    <linearGradient
       id="linearGradient3587-6-5-3">
      <stop
         offset="0"
         style="stop-color:#000000;stop-opacity:1"
         id="stop3589-9-2-0" />
      <stop
         offset="1"
         style="stop-color:#363636;stop-opacity:1"
         id="stop3591-7-4-7" />
    </linearGradient>
    <linearGradient
       gradientTransform="translate(-52.096803,-11.363826)"
       gradientUnits="userSpaceOnUse"
       xlink:href="#linearGradient3587-6-5-3"
       id="linearGradient2395"
       y2="27.363825"
       x2="66.09668"
       y1="9.3638258"
       x1="66.09668" />
    <linearGradient
       gradientUnits="userSpaceOnUse"
       xlink:href="#linearGradient3587-6-5-3"
       id="linearGradient7390"
       y2="13.496136"
       x2="4.9554448"
       y1="2.6841583"
       x1="4.9554448" />
    <linearGradient
       gradientUnits="userSpaceOnUse"
       xlink:href="#linearGradient3587-6-5-3"
       id="linearGradient7392"
       y2="11.649005"
       x2="7.9109159"
       y1="4.5762329"
       x1="7.9109159" />
    <linearGradient
       gradientUnits="userSpaceOnUse"
       xlink:href="#linearGradient3587-6-5-3"
       id="linearGradient7394"
       y2="13.317288"
       x2="10.186814"
       y1="2.7742527"
       x1="10.186814" />
    <linearGradient
       gradientUnits="userSpaceOnUse"
       xlink:href="#linearGradient3587-6-5-3"
       id="linearGradient7396"
       y2="15.183488"
       x2="13.917011"
       y1="0.88217813"
       x1="13.917011" />
    <linearGradient
       id="linearGradient5263">
      <stop
         offset="0"
         style="stop-color:#a0d5ff;stop-opacity:1"
         id="stop5265" />
      <stop
         offset="1"
         style="stop-color:#a0d5ff;stop-opacity:1"
         id="stop5267" />
    </linearGradient>
    <filter
       id="filter7554-5"
       color-interpolation-filters="sRGB">
      <feBlend
         id="feBlend7556-7"
         in2="BackgroundImage"
         mode="darken" />
    </filter>
  </defs>
  <path
     style="fill:#bebebe;fill-opacity:1"
     d="M 8 2 C 7.3653556 2 6.8230456 2.2258712 6.3710938 2.6777344 C 5.919142 3.1295977 5.6933594 3.6739494 5.6933594 4.3085938 L 5.6933594 8 C 5.6933594 8.6346444 5.9192305 9.1790846 6.3710938 9.6308594 C 6.8229571 10.082634 7.3653556 10.308594 8 10.308594 C 8.6346444 10.308594 9.1789962 10.082634 9.6308594 9.6308594 C 10.082723 9.1790846 10.308594 8.6346444 10.308594 8 L 10.308594 4.3085938 C 10.308594 3.6739494 10.0829 3.1296862 9.6308594 2.6777344 C 9.1789962 2.2258712 8.6346444 2 8 2 z M 4.3085938 6.6152344 C 4.1835236 6.6152344 4.0757213 6.6625599 3.984375 6.7539062 C 3.893029 6.8452522 3.8457031 6.9531435 3.8457031 7.078125 L 3.8457031 8 C 3.8457031 9.0625204 4.2010717 9.9874344 4.9101562 10.773438 C 5.6192408 11.55944 6.4957497 12.009667 7.5390625 12.125 L 7.5390625 13.078125 L 5.6933594 13.078125 C 5.5683778 13.078125 5.4604869 13.123494 5.3691406 13.214844 C 5.2777946 13.306194 5.2304687 13.414081 5.2304688 13.539062 C 5.2304688 13.663956 5.2777941 13.772024 5.3691406 13.863281 C 5.4604866 13.954631 5.5683778 14 5.6933594 14 L 10.308594 14 C 10.433575 14 10.541643 13.954629 10.632812 13.863281 C 10.724243 13.772021 10.769531 13.663956 10.769531 13.539062 C 10.769531 13.414081 10.724248 13.30619 10.632812 13.214844 C 10.541643 13.123494 10.433575 13.078125 10.308594 13.078125 L 8.4628906 13.078125 L 8.4628906 12.125 C 9.5060264 12.009667 10.380671 11.559441 11.089844 10.773438 C 11.799017 9.9874344 12.154297 9.0625204 12.154297 8 L 12.154297 7.078125 C 12.154297 6.9531435 12.109015 6.8453411 12.017578 6.7539062 C 11.926408 6.6625603 11.81834 6.6152344 11.693359 6.6152344 C 11.568377 6.6152344 11.460487 6.6625599 11.369141 6.7539062 C 11.277791 6.8452522 11.230469 6.9531435 11.230469 7.078125 L 11.230469 8 C 11.230469 8.8894758 10.915369 9.6509488 10.283203 10.283203 C 9.6511255 10.915458 8.8894758 11.230469 8 11.230469 C 7.1105242 11.230469 6.3510045 10.915458 5.71875 10.283203 C 5.086584 9.6511258 4.7695313 8.8894758 4.7695312 8 L 4.7695312 7.078125 C 4.7695312 6.9531435 4.7241589 6.8452525 4.6328125 6.7539062 C 4.5414665 6.6625603 4.4336638 6.6152344 4.3085938 6.6152344 z "
     id="path4989" />
</svg>
